static/images/cs-hyperstart-blue.svg

<svg width="30" height="110" viewBox="0 0 30 110" fill="none" xmlns="http://www.w3.org/2000/svg">
<g opacity="0.9">
<path d="M21.3069 53.9447C21.5055 54.5958 19.658 56.3058 22.1599 55.9693C22.544 56.4201 22.9287 56.8704 23.3128 57.3212C23.4338 56.876 23.5554 56.4309 23.6759 55.9862C24.1573 55.9432 24.6387 55.9008 25.1201 55.8584C26.2967 56.1808 25.6202 54.3011 26.7097 54.5206C27.0921 55.0178 27.8993 56.2493 27.9677 55.648C28.2127 53.5041 30.8181 51.4031 28.3971 49.1206C29.865 46.5106 28.5226 44.1178 27.8065 41.6843C27.3472 40.1219 26.7391 38.3253 24.822 38.5239C23.2138 38.6908 21.906 39.903 21.4416 41.6685C20.3136 43.0119 17.1582 43.9668 20.5777 46.1808C19.2546 48.9068 20.541 51.4314 21.3069 53.9447Z" fill="#82C6DD"/>
<path d="M3.10116 28.6034C3.70078 29.914 4.01301 31.6257 6.15126 30.7823C10.3152 32.2271 9.44858 29.3829 9.27662 27.1315C13.0417 25.8576 10.7983 24.5158 9.31225 23.1825C9.53852 21.7683 9.42254 20.4859 7.61126 19.4824C9.10633 21.3356 7.37709 21.5851 6.72204 22.3453C5.46511 22.2938 5.47357 21.3424 5.3825 20.4616C4.47686 21.7678 2.95859 20.8615 1.85156 21.4385C3.13055 23.6763 0.524518 26.5918 3.10116 28.6034ZM8.3998 28.5785C8.42864 28.3166 8.45808 28.0552 8.53728 27.8233C8.45808 28.0546 8.42921 28.3166 8.3998 28.5785C8.15825 28.583 7.91672 28.587 7.67461 28.5898C7.91672 28.5864 8.15825 28.5824 8.3998 28.5785Z" fill="#82C6DD"/>
<path d="M4.59558 61.3309C4.35517 61.0893 4.11417 60.8472 3.87319 60.6057C4.11417 60.8478 4.35517 61.0893 4.59558 61.3309C5.54251 59.1564 6.47982 56.9798 6.10308 54.5123C5.95544 53.0149 7.17559 51.2896 5.36261 50.07C5.13181 49.9586 4.88917 49.9167 4.63518 49.945C3.8851 48.9042 3.10559 49.1265 2.31365 49.8907C1.69876 51.1787 -0.951999 49.7544 -0.72177 52.1681C-4.20519 54.342 -2.67052 57.4436 -2.82382 60.5361C-2.94204 62.9193 -1.61158 62.8678 -0.727432 63.7893C0.732006 62.2897 4.23411 65.2091 4.59558 61.3309Z" fill="#82C6DD"/>
<path d="M-5.18583 11.4442C-5.25824 12.0257 -4.66881 12.6066 -3.96002 11.8927C-3.8039 11.7349 -3.79259 11.434 -3.71509 11.1986C-2.27432 10.5628 -2.47627 12.5665 -1.45523 12.6049C0.232174 11.5714 -0.80468 9.80313 -0.332342 8.44212C-0.675707 8.53546 -1.0191 8.62934 -1.36246 8.72268C-1.38961 8.24299 -1.41617 7.76388 -1.44332 7.28419C1.0151 4.75563 -4.0013 3.17626 -1.17633 0C-3.46731 0.999546 -4.58961 1.92385 -5.68532 1.8933C-10.9054 1.74905 -8.82424 4.77996 -8.1675 7.23385C-10.2978 10.8027 -4.88829 9.05588 -5.18583 11.4442ZM-5.36174 8.18249L-5.36233 8.1819C-5.39627 8.13834 -5.41153 8.08631 -5.41888 8.03144C-5.41153 8.08687 -5.39568 8.13836 -5.36174 8.18249Z" fill="#82C6DD"/>
<path d="M27.4951 74.2523C26.6799 73.7064 29.5326 71.8788 26.719 72.0315C24.2085 72.7075 22.4295 74.5753 20.3461 75.9471C20.0661 77.3731 20.3116 78.6652 21.3179 79.7637C20.8507 81.6898 22.4459 82.0235 23.5897 82.7063C26.4095 84.4882 27.886 83.9355 27.632 80.3786C27.6325 79.9639 27.6325 79.5493 27.6325 79.1352C28.601 78.905 28.8459 78.1572 28.9415 77.303C30.5848 75.2784 28.3345 75.0997 27.4951 74.2523Z" fill="#82C6DD"/>
<path d="M12.4049 80.2682C14.042 78.9994 12.7822 76.5342 12.4892 76.7492C9.97307 78.5927 9.53129 74.482 7.63176 75.2994C6.72555 75.2094 5.91664 74.6647 5.52972 76.3402C4.69365 79.9634 3.10013 83.4615 4.76604 87.239C4.38194 87.975 4.75076 88.802 4.20658 89.6256C3.20873 91.1354 3.1301 92.6916 5.25986 93.445C5.04547 93.897 4.39213 94.1606 4.67326 94.8247C5.61794 97.9275 8.22061 95.7083 9.89953 96.4527C12.1289 96.5585 11.5417 94.4531 12.2957 93.4004C13.2223 92.6356 12.8591 91.8289 12.3732 91.0183C12.0819 88.4965 14.8113 85.8871 12.1526 83.4343C12.2357 83.186 12.3189 82.9377 12.4026 82.6899C13.1652 81.8748 14.8854 81.0494 12.4049 80.2682Z" fill="#82C6DD"/>
</g>
</svg>

<svg xmlns="http://www.w3.org/2000/svg" width="30" height="110" fill="none" viewBox="0 0 30 110"><g fill="#82c6dd" opacity=".9"><path d="M21.307 53.945c.199.65-1.649 2.36.853 2.024l1.153 1.352.363-1.335 1.444-.128c1.177.323.5-1.557 1.59-1.337.382.497 1.19 1.728 1.258 1.127.245-2.144 2.85-4.245.43-6.527 1.467-2.61.125-5.003-.591-7.437-.46-1.562-1.068-3.359-2.985-3.16-1.608.167-2.916 1.379-3.38 3.145-1.128 1.343-4.284 2.298-.864 4.512-1.323 2.726-.037 5.25.729 7.764M3.101 28.603c.6 1.311.912 3.023 3.05 2.18 4.164 1.444 3.298-1.4 3.126-3.652 3.765-1.273 1.521-2.615.035-3.948.227-1.415.11-2.697-1.7-3.7 1.494 1.853-.235 2.102-.89 2.862-1.257-.051-1.248-1.003-1.34-1.883-.905 1.306-2.423.4-3.53.977 1.279 2.237-1.327 5.153 1.25 7.164m5.299-.025c.029-.261.058-.523.137-.755-.079.232-.108.494-.137.755q-.362.007-.725.012zM4.596 61.33l-.723-.724zc.947-2.175 1.884-4.351 1.507-6.819-.148-1.497 1.073-3.222-.74-4.442a1.3 1.3 0 0 0-.728-.125c-.75-1.04-1.53-.819-2.321-.054-.615 1.288-3.266-.137-3.036 2.277-3.483 2.174-1.949 5.276-2.102 8.368-.118 2.383 1.212 2.332 2.097 3.253 1.459-1.5 4.961 1.42 5.323-2.458M-5.186 11.444c-.072.582.517 1.163 1.226.449.156-.158.167-.459.245-.694 1.44-.636 1.239 1.367 2.26 1.406 1.687-1.034.65-2.802 1.123-4.163l-1.03.28q-.041-.718-.081-1.438C1.015 4.756-4.001 3.176-1.176 0c-2.291 1-3.414 1.924-4.51 1.893-5.22-.144-3.138 2.887-2.482 5.34-2.13 3.57 3.28 1.823 2.982 4.211M27.495 74.252c-.815-.546 2.038-2.373-.776-2.22-2.51.675-4.29 2.543-6.373 3.915-.28 1.426-.034 2.718.972 3.817-.467 1.926 1.128 2.26 2.272 2.942 2.82 1.782 4.296 1.23 4.042-2.327v-1.244c.969-.23 1.214-.978 1.31-1.832 1.643-2.025-.608-2.203-1.447-3.05M12.405 80.268c1.637-1.269.377-3.734.084-3.519-2.516 1.844-2.958-2.267-4.857-1.45-.906-.09-1.715-.634-2.102 1.041-.836 3.623-2.43 7.121-.764 10.899-.384.736-.015 1.563-.56 2.387-.997 1.51-1.076 3.066 1.054 3.819-.215.452-.868.716-.587 1.38.945 3.102 3.548.883 5.227 1.628 2.229.105 1.642-2 2.396-3.053.926-.764.563-1.571.077-2.382-.291-2.522 2.438-5.13-.22-7.584l.25-.744c.762-.815 2.482-1.64.002-2.422"/></g></svg>
